src/assets/flags/pr.svg

<?xml version="1.0" encoding="UTF-8"?>
<svg xmlns="http://www.w3.org/2000/svg" xmlns:xlink="http://www.w3.org/1999/xlink" width="25px" height="px" viewBox="0 0 25 19" version="1.1">
<g id="surface1">
<rect x="0" y="0" width="25" height="19" style="fill:rgb(92.941177%,0%,0%);fill-opacity:1;stroke:none;"/>
<path style=" stroke:none;fill-rule:evenodd;fill:rgb(100%,100%,100%);fill-opacity:1;" d="M 0 3.800781 L 28.125 3.800781 L 28.125 7.601562 L 0 7.601562 Z M 0 11.398438 L 28.125 11.398438 L 28.125 15.199219 L 0 15.199219 Z M 0 11.398438 "/>
<path style=" stroke:none;fill-rule:evenodd;fill:rgb(0%,31.37255%,94.117647%);fill-opacity:1;" d="M 0 0 L 16.140625 9.488281 L 0 18.960938 Z M 0 0 "/>
<path style=" stroke:none;fill-rule:evenodd;fill:rgb(100%,100%,100%);fill-opacity:1;" d="M 7.09375 12.078125 L 5.359375 10.761719 L 3.628906 12.089844 L 4.273438 9.933594 L 2.546875 8.597656 L 4.679688 8.582031 L 5.34375 6.429688 L 6.023438 8.574219 L 8.15625 8.578125 L 6.4375 9.925781 Z M 7.09375 12.078125 "/>
</g>
</svg>

<svg xmlns="http://www.w3.org/2000/svg" width="25" height="px" viewBox="0 0 25 19"><path d="M0 0h25v19H0z" style="fill:#ed0000;fill-opacity:1;stroke:none"/><path d="M0 3.8h28.125v3.802H0Zm0 7.598h28.125V15.2H0Zm0 0" style="stroke:none;fill-rule:evenodd;fill:#fff;fill-opacity:1"/><path d="m0 0 16.14 9.488L0 18.961Zm0 0" style="stroke:none;fill-rule:evenodd;fill:#0050f0;fill-opacity:1"/><path d="m7.094 12.078-1.735-1.316-1.73 1.328.644-2.156-1.726-1.336 2.133-.016.664-2.152.68 2.144 2.132.004-1.719 1.348Zm0 0" style="stroke:none;fill-rule:evenodd;fill:#fff;fill-opacity:1"/></svg>
